fs/video_person_star_off_20_filled.svg

<svg viewBox="0 0 20 20" fill="none" xmlns="http://www.w3.org/2000/svg" height="1em" width="1em">
  <path d="M2.85355 2.14645C2.65829 1.95118 2.34171 1.95118 2.14645 2.14645C1.95118 2.34171 1.95118 2.65829 2.14645 2.85355L3.30539 4.01249C2.5689 4.10791 2 4.73751 2 5.49999V14.5C2 15.3284 2.67157 16 3.5 16H9.20703C9.07217 15.5232 9 15.02 9 14.5C9 13.5998 9.21628 12.7501 9.59971 12H7.5C6.67157 12 6 12.6716 6 13.5V15H3.5C3.22386 15 3 14.7761 3 14.5V5.49999C3 5.22384 3.22386 4.99999 3.5 4.99999H4.29288L7.51524 8.22235C7.50517 8.31351 7.5 8.40614 7.5 8.49999C7.5 9.8807 8.61929 11 10 11C10.0909 11 10.1806 10.9951 10.269 10.9857C10.2705 10.9839 10.2719 10.9822 10.2734 10.9805L10.984 11.6912C10.3682 12.461 10 13.4375 10 14.5C10 16.9853 12.0147 19 14.5 19C15.5838 19 16.5781 18.6168 17.3549 17.9786C17.5257 18.0302 17.7186 17.9885 17.8536 17.8536C18.0488 17.6583 18.0488 17.3417 17.8536 17.1464L2.85355 2.14645ZM16.4965 17.2036C16.37 17.4707 16.0263 17.6073 15.75 17.398L14.5 16.4513L13.25 17.398C12.8578 17.6951 12.33 17.2953 12.4798 16.8146L12.9572 15.2829L11.7073 14.3362C11.315 14.0391 11.5166 13.3923 12.0015 13.3923H12.6852L16.4965 17.2036ZM8.57011 6.44901L11.8181 9.69702C11.9781 9.60753 12.1429 9.52579 12.3122 9.45231C12.4332 9.15879 12.5 8.83719 12.5 8.49999C12.5 7.11927 11.3807 5.99999 10 5.99999C9.46827 5.99999 8.9753 6.16599 8.57011 6.44901ZM12.5597 10.4386L14.0139 11.8928L14.024 11.8605C14.1738 11.3798 14.8262 11.3798 14.976 11.8605L15.4264 13.3052L15.5134 13.3923H16.9985C17.4834 13.3923 17.685 14.0391 17.2927 14.3362L16.8173 14.6962L18.5614 16.4403C18.8425 15.8528 19 15.1948 19 14.5C19 12.0147 16.9853 9.99999 14.5 9.99999C13.8052 9.99999 13.1472 10.1574 12.5597 10.4386ZM6.12109 3.99999L7.12109 4.99999H16.5C16.7761 4.99999 17 5.22384 17 5.49999V9.5997C17.3578 9.78259 17.6929 10.0035 18 10.2571V5.49999C18 4.67156 17.3284 3.99999 16.5 3.99999H6.12109Z" fill="#212121"/>
</svg>

<svg viewBox="0 0 20 20" fill="none" xmlns="http://www.w3.org/2000/svg" height="1em" width="1em">
  <path d="M2.854 2.146a.5.5 0 1 0-.708.708l1.16 1.158A1.5 1.5 0 0 0 2 5.5v9A1.5 1.5 0 0 0 3.5 16h5.707A5.504 5.504 0 0 1 9 14.5c0-.9.216-1.75.6-2.5H7.5A1.5 1.5 0 0 0 6 13.5V15H3.5a.5.5 0 0 1-.5-.5v-9a.5.5 0 0 1 .5-.5h.793l3.222 3.222a2.5 2.5 0 0 0 2.754 2.763l.004-.005.711.711a4.5 4.5 0 0 0 6.37 6.287.5.5 0 0 0 .5-.832l-15-15Zm13.643 15.058c-.127.267-.47.403-.747.194l-1.25-.947-1.25.947c-.392.297-.92-.103-.77-.583l.477-1.532-1.25-.947c-.392-.297-.19-.944.294-.944h.684l3.812 3.812ZM8.57 6.449l3.248 3.248c.16-.09.325-.171.494-.245A2.5 2.5 0 0 0 8.57 6.45Zm3.99 3.99 1.454 1.454.01-.033c.15-.48.802-.48.952 0l.45 1.445.087.087H17c.484 0 .686.647.294.944l-.476.36 1.744 1.744a4.5 4.5 0 0 0-6.002-6.002ZM6.12 4l1 1h9.38a.5.5 0 0 1 .5.5v4.1c.358.183.693.404 1 .657V5.5A1.5 1.5 0 0 0 16.5 4H6.121Z" fill="#212121"/>
</svg>
